X:055
T:First of August (reel), The 
T:The Liffey Banks
B:CRE 3.082 (Bruacha na Life)
F:file ID: cre.3/055first_a
N:This is Tommy Potts' setting of this tune.
L:1/8
M:4/4
Q:180
R:reel
K:G
d>c|B2GF GBdB|c2cd efge|dcBA AFGE|DG (3BAG AGEF|
"5"GEDE GBdB|c2 cd g2 gA|B3G AFGE|DEGB (3ABA FD|
"9"GABG FAEF|DGBd efge|dcBG AFGE|DG (3BAG AGEF|
"13"GEDE GBdB|c2 cd g2 gA|B3G AFGE|DEGB (3ABA G2||
"17"gfge d2 Bd|gabg agef|gafg edBd|gabg (3aba g2|
"21"g3e d2 Bd|g>aab agef|gb (3agf efge|d2dc Bcde||

%%%

